austria/municipalities/41210.svg

<?xml version="1.0" encoding="UTF-8"?>
<!DOCTYPE svg PUBLIC "-//W3C//DTD SVG 1.1//EN" "http://www.w3.org/Graphics/SVG/1.1/DTD/svg11.dtd">
<svg xmlns="http://www.w3.org/2000/svg" version="1.1" width="166px" height="207px" style="shape-rendering:geometricPrecision; text-rendering:geometricPrecision; image-rendering:optimizeQuality; fill-rule:evenodd; clip-rule:evenodd" xmlns:xlink="http://www.w3.org/1999/xlink">
<g><path style="opacity:1" fill="#000000" d="M -0.5,-0.5 C 54.8333,-0.5 110.167,-0.5 165.5,-0.5C 165.5,43.8333 165.5,88.1667 165.5,132.5C 160.089,165.759 141.756,188.926 110.5,202C 105.396,203.576 100.396,205.076 95.5,206.5C 86.8333,206.5 78.1667,206.5 69.5,206.5C 29.9757,196.641 6.64233,171.641 -0.5,131.5C -0.5,87.5 -0.5,43.5 -0.5,-0.5 Z"/></g>
<g><path style="opacity:1" fill="#fefffe" d="M 3.5,3.5 C 56.1667,3.5 108.833,3.5 161.5,3.5C 161.5,16.8333 161.5,30.1667 161.5,43.5C 151.833,43.5 142.167,43.5 132.5,43.5C 132.5,53.1667 132.5,62.8333 132.5,72.5C 123.833,72.5 115.167,72.5 106.5,72.5C 106.5,82.1667 106.5,91.8333 106.5,101.5C 98.1667,101.5 89.8333,101.5 81.5,101.5C 81.8314,110.192 81.498,118.859 80.5,127.5C 72.7816,130.193 65.4483,133.693 58.5,138C 54.8333,138.667 51.1667,138.667 47.5,138C 37.4672,130.273 26.4672,128.273 14.5,132C 11.5,133.5 8.5,135 5.5,136.5C 5.16667,136.167 4.83333,135.833 4.5,135.5C 3.50542,91.5425 3.17208,47.5425 3.5,3.5 Z"/></g>
<g><path style="opacity:1" fill="#000000" d="M 38.5,17.5 C 39.1667,19.8333 39.8333,22.1667 40.5,24.5C 39.3995,25.6049 38.7329,26.9382 38.5,28.5C 34.256,25.8019 30.256,26.1352 26.5,29.5C 25.0825,23.3887 21.4158,21.0554 15.5,22.5C 18.7539,19.8341 21.9206,20.1674 25,23.5C 24.7717,15.0434 28.605,11.8767 36.5,14C 37.8228,14.8159 38.4894,15.9826 38.5,17.5 Z"/></g>
<g><path style="opacity:1" fill="#000000" d="M 97.5,40.5 C 101.386,47.6827 99.0523,51.6827 90.5,52.5C 86.2621,52.021 83.7621,49.6876 83,45.5C 82.2078,47.5873 81.0412,49.4207 79.5,51C 71.8686,53.6472 67.202,51.1472 65.5,43.5C 66.373,41.5866 67.373,39.7533 68.5,38C 62.3469,36.5349 60.1802,32.7016 62,26.5C 64.6477,20.3388 68.8144,19.0055 74.5,22.5C 75.1811,14.6229 79.1811,11.7896 86.5,14C 87.3333,14.8333 88.1667,15.6667 89,16.5C 89.3333,19.1667 89.6667,21.8333 90,24.5C 93.6623,21.2188 97.329,21.5521 101,25.5C 103.695,31.6123 101.862,35.7789 95.5,38C 96.756,38.4169 97.4226,39.2502 97.5,40.5 Z"/></g>
<g><path style="opacity:1" fill="#cb0000" d="M 38.5,17.5 C 39.0841,20.9828 38.2508,23.9828 36,26.5C 33.6667,25.1667 31.3333,25.1667 29,26.5C 24.7793,20.76 25.946,16.76 32.5,14.5C 34.8008,14.9837 36.8008,15.9837 38.5,17.5 Z"/></g>
<g><path style="opacity:1" fill="#cb0000" d="M 80.5,14.5 C 88.6314,15.2417 90.6314,19.2417 86.5,26.5C 83.7311,25.704 81.0644,25.3706 78.5,25.5C 76.1365,21.2865 76.8032,17.6198 80.5,14.5 Z"/></g>
<g><path style="opacity:1" fill="#cb0000" d="M 26.5,29.5 C 25.0652,30.7898 24.0652,32.4565 23.5,34.5C 14.3339,37.0935 11.0006,33.7602 13.5,24.5C 14.8333,24.5 15.5,23.8333 15.5,22.5C 21.4158,21.0554 25.0825,23.3887 26.5,29.5 Z"/></g>
<g><path style="opacity:1" fill="#000000" d="M 48.5,24.5 C 45.8033,23.3697 43.1367,23.3697 40.5,24.5C 42.9417,20.8248 45.6084,20.8248 48.5,24.5 Z"/></g>
<g><path style="opacity:1" fill="#cb0000" d="M 77.5,28.5 C 75.691,30.0991 74.3576,32.0991 73.5,34.5C 63.9026,36.7413 61.0692,33.408 65,24.5C 66.4413,23.13 68.108,22.13 70,21.5C 73.3159,23.0549 75.8159,25.3882 77.5,28.5 Z"/></g>
<g><path style="opacity:1" fill="#000000" d="M 15.5,22.5 C 15.5,23.8333 14.8333,24.5 13.5,24.5C 13.5,23.1667 14.1667,22.5 15.5,22.5 Z"/></g>
<g><path style="opacity:1" fill="#cb0000" d="M 48.5,24.5 C 52.4512,32.273 50.1178,35.9396 41.5,35.5C 41.5358,32.539 40.5358,30.2057 38.5,28.5C 38.7329,26.9382 39.3995,25.6049 40.5,24.5C 43.1367,23.3697 45.8033,23.3697 48.5,24.5 Z"/></g>
<g><path style="opacity:1" fill="#cb0000" d="M 93.5,23.5 C 98.0213,23.6867 100.688,26.0201 101.5,30.5C 99.7266,35.0195 96.3932,36.6862 91.5,35.5C 91.6611,32.4721 90.9944,29.6388 89.5,27C 90.6856,25.5879 92.019,24.4212 93.5,23.5 Z"/></g>
<g><path style="opacity:1" fill="#000000" d="M 13.5,24.5 C 11.0006,33.7602 14.3339,37.0935 23.5,34.5C 24.0652,32.4565 25.0652,30.7898 26.5,29.5C 25.1667,32.5 25.1667,35.5 26.5,38.5C 23.994,35.9142 21.494,35.9142 19,38.5C 15.1753,47.0251 18.0087,50.8584 27.5,50C 31.0441,47.1268 31.3775,43.9601 28.5,40.5C 38.0372,41.6312 41.3705,37.6312 38.5,28.5C 40.5358,30.2057 41.5358,32.539 41.5,35.5C 50.1178,35.9396 52.4512,32.273 48.5,24.5C 52.4463,26.9504 53.2796,30.2837 51,34.5C 49.2817,35.8502 47.4484,37.0168 45.5,38C 47.9185,39.6856 48.9185,42.019 48.5,45C 48.4313,46.9855 47.7647,48.4855 46.5,49.5C 43.3165,52.7029 39.6498,53.2029 35.5,51C 34.2283,49.6932 33.2283,48.1932 32.5,46.5C 31.5091,48.3231 30.1757,49.8231 28.5,51C 17.4194,52.9359 13.7528,48.7693 17.5,38.5C 11.7984,35.9668 9.9651,31.6335 12,25.5C 12.3826,24.944 12.8826,24.6107 13.5,24.5 Z"/></g>
<g><path style="opacity:1" fill="#cb0000" d="M 38.5,28.5 C 41.3705,37.6312 38.0372,41.6312 28.5,40.5C 28.5,39.1667 27.8333,38.5 26.5,38.5C 25.1667,35.5 25.1667,32.5 26.5,29.5C 30.256,26.1352 34.256,25.8019 38.5,28.5 Z"/></g>
<g><path style="opacity:1" fill="#cb0000" d="M 87.5,40.5 C 77.9453,41.3276 74.6119,37.3276 77.5,28.5C 79.3664,27.9862 81.1997,27.3195 83,26.5C 87.6031,26.8666 89.7697,29.3666 89.5,34C 89.5177,36.4418 88.851,38.6085 87.5,40.5 Z"/></g>
<g><path style="opacity:1" fill="#cb0000" d="M 26.5,38.5 C 27.8333,38.5 28.5,39.1667 28.5,40.5C 31.3775,43.9601 31.0441,47.1268 27.5,50C 18.0087,50.8584 15.1753,47.0251 19,38.5C 21.494,35.9142 23.994,35.9142 26.5,38.5 Z"/></g>
<g><path style="opacity:1" fill="#cb0000" d="M 71.5,36.5 C 75.4598,37.9327 78.7932,40.4327 81.5,44C 80.3238,49.5883 76.9904,51.5883 71.5,50C 66.3241,45.6317 66.3241,41.1317 71.5,36.5 Z"/></g>
<g><path style="opacity:1" fill="#cb0000" d="M 46.5,49.5 C 43.2011,50.3761 39.8678,50.5428 36.5,50C 34.98,48.1153 33.98,45.9486 33.5,43.5C 36.4327,42.07 38.9327,40.07 41,37.5C 46.8788,39.5932 48.7121,43.5932 46.5,49.5 Z"/></g>
<g><path style="opacity:1" fill="#cb0000" d="M 97.5,40.5 C 99.1531,48.7987 95.8198,51.9653 87.5,50C 83.6852,46.6713 83.6852,43.5047 87.5,40.5C 88.7942,39.7101 89.9609,38.7101 91,37.5C 93.2508,38.4123 95.4175,39.4123 97.5,40.5 Z"/></g>
<g><path style="opacity:1" fill="#000000" d="M 26.5,38.5 C 27.8333,38.5 28.5,39.1667 28.5,40.5C 27.1667,40.5 26.5,39.8333 26.5,38.5 Z"/></g>
<g><path style="opacity:1" fill="#006632" d="M 134.5,45.5 C 143.5,45.5 152.5,45.5 161.5,45.5C 161.826,76.2105 161.492,106.877 160.5,137.5C 159.998,138.521 159.332,138.688 158.5,138C 151.247,130.917 142.58,128.25 132.5,130C 125.391,133.316 118.058,136.149 110.5,138.5C 103.839,137.002 97.8386,134.169 92.5,130C 89.5682,128.855 86.5682,128.022 83.5,127.5C 83.5,119.5 83.5,111.5 83.5,103.5C 91.8333,103.5 100.167,103.5 108.5,103.5C 108.5,94.1667 108.5,84.8333 108.5,75.5C 117.167,75.5 125.833,75.5 134.5,75.5C 134.5,65.5 134.5,55.5 134.5,45.5 Z"/></g>
<g><path style="opacity:1" fill="#000000" d="M 58.5,55.5 C 56.5,56.1667 54.5,56.8333 52.5,57.5C 52.5774,56.2502 53.244,55.4169 54.5,55C 56.0657,54.235 57.3991,54.4017 58.5,55.5 Z"/></g>
<g><path style="opacity:1" fill="#cb0000" d="M 58.5,55.5 C 59.5137,56.6737 60.847,57.3404 62.5,57.5C 63.8333,60.8333 63.8333,64.1667 62.5,67.5C 59.462,66.4744 56.462,66.3077 53.5,67C 51.3342,64.0112 51.0008,60.8446 52.5,57.5C 54.5,56.8333 56.5,56.1667 58.5,55.5 Z"/></g>
<g><path style="opacity:1" fill="#000000" d="M 58.5,55.5 C 60.4832,55.1568 61.8166,55.8235 62.5,57.5C 60.847,57.3404 59.5137,56.6737 58.5,55.5 Z"/></g>
<g><path style="opacity:1" fill="#000000" d="M 52.5,57.5 C 51.0008,60.8446 51.3342,64.0112 53.5,67C 56.462,66.3077 59.462,66.4744 62.5,67.5C 63.8333,64.1667 63.8333,60.8333 62.5,57.5C 64.7968,59.1652 66.1301,61.4985 66.5,64.5C 71.3831,63.023 74.8831,64.6896 77,69.5C 78.274,75.5656 75.774,78.7323 69.5,79C 76.0716,83.8555 76.0716,88.5221 69.5,93C 64.2132,94.6878 60.2132,93.1878 57.5,88.5C 56.3954,90.6114 54.7288,91.9447 52.5,92.5C 46.1941,94.5823 42.1941,92.249 40.5,85.5C 41.0951,83.1434 42.0951,80.9767 43.5,79C 41.256,78.9504 39.5893,78.1171 38.5,76.5C 34.6765,69.64 36.5098,64.64 44,61.5C 46.0577,62.1117 47.891,63.1117 49.5,64.5C 49.974,61.7833 50.974,59.4499 52.5,57.5 Z"/></g>
<g><path style="opacity:1" fill="#cb0000" d="M 38.5,76.5 C 37.547,62.5711 42.2136,60.0711 52.5,69C 50.2407,70.9349 49.2407,73.4349 49.5,76.5C 45.8162,77.7278 42.1495,77.7278 38.5,76.5 Z"/></g>
<g><path style="opacity:1" fill="#cb0000" d="M 66.5,65.5 C 74.3066,65.1361 76.9733,68.6361 74.5,76C 71.9865,77.2525 69.3198,77.7525 66.5,77.5C 66.4519,74.6872 65.7853,72.0205 64.5,69.5C 65.1799,68.1401 65.8466,66.8068 66.5,65.5 Z"/></g>
<g><path style="opacity:1" fill="#cb0000" d="M 50.5,77.5 C 51.0875,69.4004 55.0875,66.9004 62.5,70C 66.5,73.6667 66.5,77.3333 62.5,81C 57.2483,83.7447 53.2483,82.5781 50.5,77.5 Z"/></g>
<g><path style="opacity:1" fill="#cb0000" d="M 50.5,77.5 C 50.3505,78.552 50.5172,79.552 51,80.5C 56.4922,83.8741 56.9922,87.8741 52.5,92.5C 42.7129,92.2539 40.2129,87.9206 45,79.5C 46.7255,78.536 48.5588,77.8693 50.5,77.5 Z"/></g>
<g><path style="opacity:1" fill="#cb0000" d="M 65.5,79.5 C 72.5091,81.1476 74.1758,84.981 70.5,91C 63.6377,94.3254 59.6377,92.1587 58.5,84.5C 61.42,83.5502 63.7533,81.8835 65.5,79.5 Z"/></g>
<g><path style="opacity:1" fill="#fefffe" d="M 79.5,129.5 C 83.687,129.395 87.687,130.228 91.5,132C 97.1025,136.468 103.436,139.301 110.5,140.5C 118.427,138.358 126.093,135.525 133.5,132C 144.155,130.835 152.822,134.335 159.5,142.5C 159.281,143.938 158.781,145.271 158,146.5C 151.139,137.435 142.305,134.602 131.5,138C 124.8,141.9 117.634,144.4 110,145.5C 100.855,142.283 91.6888,138.95 82.5,135.5C 80.1807,136.064 77.8474,136.564 75.5,137C 68.9682,141.682 61.8016,145.182 54,147.5C 51.536,146.839 49.036,146.339 46.5,146C 40.0292,142.065 33.1958,138.898 26,136.5C 19.1241,137.547 12.9575,140.213 7.5,144.5C 5.37706,142.878 5.04373,140.878 6.5,138.5C 16.3865,131.925 26.7198,130.759 37.5,135C 44.7132,140.606 52.7132,141.94 61.5,139C 67.4599,135.488 73.4599,132.321 79.5,129.5 Z"/></g>
<g><path style="opacity:1" fill="#fefffe" d="M -0.5,131.5 C 6.64233,171.641 29.9757,196.641 69.5,206.5C 46.1667,206.5 22.8333,206.5 -0.5,206.5C -0.5,181.5 -0.5,156.5 -0.5,131.5 Z"/></g>
<g><path style="opacity:1" fill="#fefffe" d="M 165.5,132.5 C 165.5,157.167 165.5,181.833 165.5,206.5C 142.167,206.5 118.833,206.5 95.5,206.5C 100.396,205.076 105.396,203.576 110.5,202C 141.756,188.926 160.089,165.759 165.5,132.5 Z"/></g>
<g><path style="opacity:1" fill="#003266" d="M 24.5,138.5 C 31.9839,140.575 38.9839,143.742 45.5,148C 50.8488,149.929 56.1822,149.929 61.5,148C 66.3018,144.762 71.3018,141.762 76.5,139C 79.8333,138.333 83.1667,138.333 86.5,139C 94.206,143.235 102.373,146.068 111,147.5C 117.912,146.63 124.412,144.464 130.5,141C 141.56,136.822 150.56,139.655 157.5,149.5C 155.536,153.956 153.369,158.289 151,162.5C 145.435,159.213 139.601,158.713 133.5,161C 128.659,163.921 123.659,166.588 118.5,169C 114.833,169.667 111.167,169.667 107.5,169C 102.341,166.588 97.3413,163.921 92.5,161C 82.1572,158.534 72.4905,160.201 63.5,166C 60.9253,166.958 58.2586,167.458 55.5,167.5C 46.6126,164.562 37.6126,161.896 28.5,159.5C 23.3446,159.619 18.8446,161.286 15,164.5C 11.6939,159.554 9.19392,154.221 7.5,148.5C 8.99792,146.171 10.9979,144.337 13.5,143C 17.1235,141.187 20.7902,139.687 24.5,138.5 Z"/></g>
<g><path style="opacity:1" fill="#fefffe" d="M 25.5,161.5 C 29.2198,161.564 32.8865,162.064 36.5,163C 48.3178,171.209 60.3178,171.542 72.5,164C 78.8167,161.948 85.1501,161.615 91.5,163C 97.9663,167.651 105.133,170.485 113,171.5C 115.167,171.333 117.333,171.167 119.5,171C 125.449,167.192 131.783,164.192 138.5,162C 142.781,160.986 146.448,161.986 149.5,165C 149,166.833 147.833,168 146,168.5C 142.286,166.049 138.452,165.882 134.5,168C 130.664,170.084 126.997,172.417 123.5,175C 118.04,177.285 112.373,177.951 106.5,177C 100.046,174.273 93.7122,171.273 87.5,168C 79.2434,167.307 71.91,169.641 65.5,175C 60.1667,175.667 54.8333,175.667 49.5,175C 43.8785,172.678 38.2118,170.345 32.5,168C 27.8042,166.962 23.4709,167.795 19.5,170.5C 18.0256,169.564 17.0256,168.23 16.5,166.5C 19.2606,164.26 22.2606,162.593 25.5,161.5 Z"/></g>
<g><path style="opacity:1" fill="#006632" d="M 26.5,169.5 C 36.5902,172.756 46.7569,175.756 57,178.5C 63.5151,178.159 69.3484,175.992 74.5,172C 77.2134,170.725 80.0467,169.891 83,169.5C 88.9171,171.041 94.4171,173.541 99.5,177C 107.848,180.28 116.181,180.28 124.5,177C 128.03,174.404 131.697,172.071 135.5,170C 139.033,169.097 142.367,169.43 145.5,171C 125.919,195.943 100.252,206.276 68.5,202C 49.8646,198.1 34.3646,188.934 22,174.5C 21.3333,173.833 21.3333,173.167 22,172.5C 23.4087,171.219 24.9087,170.219 26.5,169.5 Z"/></g>
</svg>

<svg xmlns="http://www.w3.org/2000/svg" width="166" height="207" style="shape-rendering:geometricPrecision;text-rendering:geometricPrecision;image-rendering:optimizeQuality;fill-rule:evenodd;clip-rule:evenodd"><path style="opacity:1" d="M-.5-.5h166v133c-5.411 33.259-23.744 56.426-55 69.5a952.449 952.449 0 0 1-15 4.5h-26c-39.524-9.859-62.858-34.859-70-75V-.5z"/><path style="opacity:1" fill="#fefffe" d="M3.5 3.5h158v40h-29v29h-26v29h-25a169.875 169.875 0 0 1-1 26 111.101 111.101 0 0 0-22 10.5 30.485 30.485 0 0 1-11 0c-10.033-7.727-21.033-9.727-33-6l-9 4.5-1-1a4390.17 4390.17 0 0 1-1-132z"/><path style="opacity:1" d="m38.5 17.5 2 7c-1.1 1.105-1.767 2.438-2 4-4.244-2.698-8.244-2.365-12 1-1.418-6.111-5.084-8.445-11-7 3.254-2.666 6.42-2.333 9.5 1-.228-8.457 3.605-11.623 11.5-9.5 1.323.816 1.99 1.983 2 3.5zM97.5 40.5c3.886 7.183 1.552 11.183-7 12-4.238-.479-6.738-2.812-7.5-7a15.83 15.83 0 0 1-3.5 5.5c-7.631 2.647-12.298.147-14-7.5a43.718 43.718 0 0 1 3-5.5c-6.153-1.465-8.32-5.298-6.5-11.5 2.648-6.161 6.814-7.494 12.5-4 .681-7.877 4.681-10.71 12-8.5l2.5 2.5 1 8c3.662-3.281 7.329-2.948 11 1 2.695 6.112.862 10.279-5.5 12.5 1.256.417 1.923 1.25 2 2.5z"/><path style="opacity:1" fill="#cb0000" d="M38.5 17.5c.584 3.483-.25 6.483-2.5 9-2.333-1.333-4.667-1.333-7 0-4.22-5.74-3.054-9.74 3.5-12 2.3.484 4.3 1.484 6 3zM80.5 14.5c8.131.742 10.131 4.742 6 12-2.769-.796-5.436-1.13-8-1-2.364-4.213-1.697-7.88 2-11zM26.5 29.5c-1.435 1.29-2.435 2.956-3 5-9.166 2.593-12.5-.74-10-10 1.333 0 2-.667 2-2 5.916-1.445 9.582.889 11 7z"/><path style="opacity:1" d="M48.5 24.5c-2.697-1.13-5.363-1.13-8 0 2.442-3.675 5.108-3.675 8 0z"/><path style="opacity:1" fill="#cb0000" d="M77.5 28.5c-1.809 1.6-3.142 3.6-4 6-9.597 2.241-12.43-1.092-8.5-10a13.243 13.243 0 0 1 5-3c3.316 1.555 5.816 3.888 7.5 7z"/><path style="opacity:1" d="M15.5 22.5c0 1.333-.667 2-2 2 0-1.333.667-2 2-2z"/><path style="opacity:1" fill="#cb0000" d="M48.5 24.5c3.951 7.773 1.618 11.44-7 11 .036-2.961-.964-5.294-3-7 .233-1.562.9-2.895 2-4 2.637-1.13 5.303-1.13 8 0zM93.5 23.5c4.521.187 7.188 2.52 8 7-1.773 4.52-5.107 6.186-10 5 .161-3.028-.506-5.861-2-8.5a16.8 16.8 0 0 1 4-3.5z"/><path style="opacity:1" d="M13.5 24.5c-2.5 9.26.834 12.593 10 10 .565-2.044 1.565-3.71 3-5-1.333 3-1.333 6 0 9-2.506-2.586-5.006-2.586-7.5 0-3.825 8.525-.991 12.358 8.5 11.5 3.544-2.873 3.878-6.04 1-9.5 9.537 1.131 12.87-2.869 10-12 2.036 1.706 3.036 4.039 3 7 8.618.44 10.951-3.227 7-11 3.946 2.45 4.78 5.784 2.5 10a32.787 32.787 0 0 1-5.5 3.5c2.419 1.686 3.419 4.019 3 7-.069 1.986-.735 3.486-2 4.5-3.184 3.203-6.85 3.703-11 1.5a14.754 14.754 0 0 1-3-4.5 13.015 13.015 0 0 1-4 4.5c-11.08 1.936-14.747-2.23-11-12.5-5.702-2.533-7.535-6.866-5.5-13 .383-.556.883-.89 1.5-1z"/><path style="opacity:1" fill="#cb0000" d="M38.5 28.5c2.87 9.131-.463 13.131-10 12 0-1.333-.667-2-2-2-1.333-3-1.333-6 0-9 3.756-3.365 7.756-3.698 12-1zM87.5 40.5c-9.555.828-12.888-3.172-10-12 1.866-.514 3.7-1.18 5.5-2 4.603.367 6.77 2.867 6.5 7.5.018 2.442-.649 4.608-2 6.5z"/><path style="opacity:1" fill="#cb0000" d="M26.5 38.5c1.333 0 2 .667 2 2 2.878 3.46 2.544 6.627-1 9.5-9.491.858-12.325-2.975-8.5-11.5 2.494-2.586 4.994-2.586 7.5 0zM71.5 36.5c3.96 1.433 7.293 3.933 10 7.5-1.176 5.588-4.51 7.588-10 6-5.176-4.368-5.176-8.868 0-13.5zM46.5 49.5a23.79 23.79 0 0 1-10 .5c-1.52-1.885-2.52-4.051-3-6.5a21.76 21.76 0 0 0 7.5-6c5.879 2.093 7.712 6.093 5.5 12zM97.5 40.5c1.653 8.299-1.68 11.465-10 9.5-3.815-3.329-3.815-6.495 0-9.5 1.294-.79 2.46-1.79 3.5-3a74.383 74.383 0 0 1 6.5 3z"/><path style="opacity:1" d="M26.5 38.5c1.333 0 2 .667 2 2-1.333 0-2-.667-2-2z"/><path style="opacity:1" fill="#006632" d="M134.5 45.5h27a2139.7 2139.7 0 0 1-1 92c-.502 1.021-1.168 1.188-2 .5-7.253-7.083-15.92-9.75-26-8a174.795 174.795 0 0 1-22 8.5c-6.661-1.498-12.661-4.331-18-8.5a45.792 45.792 0 0 0-9-2.5v-24h25v-28h26v-30z"/><path style="opacity:1" d="m58.5 55.5-6 2c.077-1.25.744-2.083 2-2.5 1.566-.765 2.9-.598 4 .5z"/><path style="opacity:1" fill="#cb0000" d="M58.5 55.5c1.014 1.174 2.347 1.84 4 2 1.333 3.333 1.333 6.667 0 10-3.038-1.026-6.038-1.192-9-.5-2.166-2.989-2.5-6.155-1-9.5l6-2z"/><path style="opacity:1" d="M58.5 55.5c1.983-.343 3.317.324 4 2-1.653-.16-2.986-.826-4-2zM52.5 57.5c-1.5 3.345-1.166 6.511 1 9.5 2.962-.692 5.962-.526 9 .5 1.333-3.333 1.333-6.667 0-10 2.297 1.665 3.63 3.998 4 7 4.883-1.477 8.383.19 10.5 5 1.274 6.066-1.226 9.232-7.5 9.5 6.572 4.856 6.572 9.522 0 14-5.287 1.688-9.287.188-12-4.5-1.105 2.111-2.771 3.445-5 4-6.306 2.082-10.306-.251-12-7a19.267 19.267 0 0 1 3-6.5c-2.244-.05-3.91-.883-5-2.5-3.824-6.86-1.99-11.86 5.5-15a14.76 14.76 0 0 1 5.5 3c.474-2.717 1.474-5.05 3-7z"/><path style="opacity:1" fill="#cb0000" d="M38.5 76.5c-.953-13.929 3.714-16.429 14-7.5-2.26 1.935-3.26 4.435-3 7.5-3.684 1.228-7.35 1.228-11 0zM66.5 65.5c7.807-.364 10.473 3.136 8 10.5-2.513 1.252-5.18 1.752-8 1.5a18.07 18.07 0 0 0-2-8l2-4z"/><path style="opacity:1" fill="#cb0000" d="M50.5 77.5c.587-8.1 4.587-10.6 12-7.5 4 3.667 4 7.333 0 11-5.252 2.745-9.252 1.578-12-3.5z"/><path style="opacity:1" fill="#cb0000" d="M50.5 77.5a4.932 4.932 0 0 0 .5 3c5.492 3.374 5.992 7.374 1.5 12-9.787-.246-12.287-4.58-7.5-13a18.166 18.166 0 0 1 5.5-2zM65.5 79.5c7.01 1.648 8.676 5.481 5 11.5-6.862 3.325-10.862 1.159-12-6.5 2.92-.95 5.253-2.617 7-5z"/><path style="opacity:1" fill="#fefffe" d="M79.5 129.5a26.528 26.528 0 0 1 12 2.5c5.603 4.468 11.936 7.301 19 8.5a135.922 135.922 0 0 0 23-8.5c10.655-1.165 19.322 2.335 26 10.5a10.258 10.258 0 0 1-1.5 4c-6.861-9.065-15.695-11.898-26.5-8.5-6.7 3.9-13.866 6.4-21.5 7.5a1399.102 1399.102 0 0 1-27.5-10c-2.32.564-4.653 1.064-7 1.5-6.532 4.682-13.698 8.182-21.5 10.5a59.176 59.176 0 0 0-7.5-1.5 100.454 100.454 0 0 0-20.5-9.5c-6.876 1.047-13.043 3.713-18.5 8-2.123-1.622-2.456-3.622-1-6 9.887-6.575 20.22-7.741 31-3.5 7.213 5.606 15.213 6.94 24 4a213.016 213.016 0 0 1 18-9.5z"/><path style="opacity:1" fill="#fefffe" d="M-.5 131.5c7.142 40.141 30.476 65.141 70 75h-70v-75zM165.5 132.5v74h-70a952.449 952.449 0 0 0 15-4.5c31.256-13.074 49.589-36.241 55-69.5z"/><path style="opacity:1" fill="#003266" d="M24.5 138.5a74.608 74.608 0 0 1 21 9.5c5.349 1.929 10.682 1.929 16 0a166.748 166.748 0 0 1 15-9 25.238 25.238 0 0 1 10 0c7.706 4.235 15.873 7.068 24.5 8.5 6.912-.87 13.412-3.036 19.5-6.5 11.06-4.178 20.06-1.345 27 8.5a149.336 149.336 0 0 1-6.5 13c-5.565-3.287-11.399-3.787-17.5-1.5a160.999 160.999 0 0 1-15 8 30.485 30.485 0 0 1-11 0 161.036 161.036 0 0 1-15-8c-10.343-2.466-20.01-.799-29 5a23.814 23.814 0 0 1-8 1.5 453.009 453.009 0 0 0-27-8c-5.155.119-9.655 1.786-13.5 5a58.525 58.525 0 0 1-7.5-16c1.498-2.329 3.498-4.163 6-5.5a77.032 77.032 0 0 1 11-4.5z"/><path style="opacity:1" fill="#fefffe" d="M25.5 161.5c3.72.064 7.386.564 11 1.5 11.818 8.209 23.818 8.542 36 1 6.317-2.052 12.65-2.385 19-1 6.466 4.651 13.633 7.485 21.5 8.5l6.5-.5a82.68 82.68 0 0 1 19-9c4.281-1.014 7.948-.014 11 3-.5 1.833-1.667 3-3.5 3.5-3.714-2.451-7.548-2.618-11.5-.5a94.09 94.09 0 0 0-11 7c-5.46 2.285-11.127 2.951-17 2a246.921 246.921 0 0 1-19-9c-8.257-.693-15.59 1.641-22 7a64.218 64.218 0 0 1-16 0 8591.135 8591.135 0 0 0-17-7c-4.696-1.038-9.03-.205-13 2.5-1.474-.936-2.474-2.27-3-4 2.76-2.24 5.76-3.907 9-5z"/><path style="opacity:1" fill="#006632" d="M26.5 169.5a630.94 630.94 0 0 0 30.5 9c6.515-.341 12.348-2.508 17.5-6.5a28.745 28.745 0 0 1 8.5-2.5 52.752 52.752 0 0 1 16.5 7.5c8.348 3.28 16.681 3.28 25 0a96.238 96.238 0 0 1 11-7c3.533-.903 6.867-.57 10 1-19.581 24.943-45.248 35.276-77 31-18.635-3.9-34.135-13.066-46.5-27.5-.667-.667-.667-1.333 0-2 1.409-1.281 2.909-2.281 4.5-3z"/></svg>
